X:3707
T:Little Pickle
O:england
B:jerry Holland's Collection
M:6/8
R:Jig
L:1/8
K:A
E|A3 cBA|EAB cBA|dcB fdB|bge efg|a2 A cBA|
EAB cBA|dcd efg|aec A2::B|A2 a aga|Acd ecA|
=G2 g gfg|B=GB dcB|A2 a aga|Acd ecA|dcd efg|aec A2:|]


